src/styles/icons/Dockbar_quiz.svg

<svg width="24" height="24" fill="current" xmlns="http://www.w3.org/2000/svg"><path d="M18.5943 20c-.4411.0034-.8782-.0836-1.2846-.2555-.4064-.172-.7735-.4253-1.0789-.7445l-1.835-2H9.54912l-1.84494 2c-.30427.3206-.67119.5749-1.07785.7469-.40666.1721-.84432.2582-1.28567.2531-.48204-.0029-.95744-.1129-1.392-.3221-.43455-.2093-.81744-.5125-1.12111-.8879-.31694-.386-.55349-.8317-.69566-1.3109-.14217-.4793-.18708-.9822-.13207-1.4791l.99727-7.66c.12166-1.17639.66868-2.2674 1.53775-3.06699C5.4039 4.47341 6.53487 4.02057 7.71416 4h8.51664c1.1612.03342 2.2714.48564 3.1269 1.27367.8554.78802 1.3988 1.85898 1.5303 3.01633L21.9451 16c.0661.5029.0294 1.014-.1078 1.5022-.1371.4883-.3719.9434-.69 1.3378-.3137.3704-.7053.6666-1.1467.8671-.4414.2006-.9217.3006-1.4063.2929Zm-9.21471-5h5.18581c.2002.0022.398.0449.5814.1257.1834.0808.3486.1979.4856.3443l1.9946 2.08c.1384.1421.3048.2537.4886.3277.1838.0741.3809.1089.5789.1023.1979-.0065.3924-.0544.5709-.1405.1785-.0861.3371-.2085.4658-.3595.14-.1736.2431-.374.3031-.5889.06-.2149.0757-.4399.046-.6611l-.9973-7.66c-.0762-.70546-.4094-1.3579-.9358-1.83218-.5263-.47428-1.2087-.73701-1.9164-.73782H7.71416c-.68506.0319-1.33612.30855-1.83546.77991-.49934.47136-.814 1.10633-.88708 1.79009l-.99727 7.66c-.02971.2212-.01408.4462.04594.6611.06002.2149.16316.4153.30311.5889.1269.1521.28437.2756.46212.3625.17774.0869.37177.1352.5694.1418.19764.0066.39445-.0286.57757-.1035.18312-.0748.34844-.1875.48516-.3308l1.99454-2.08c.24533-.2709.58377-.4388.9474-.47Z"/><path d="M9.65012 13.5h-1.89v-2h-1.89v-2h1.89v-2h1.89v2h1.87998v2H9.65012v2ZM14.8302 10.5002c-.2998.0181-.5982-.0544-.8564-.2079-.2582-.1534-.4644-.38092-.5919-.65294-.1274-.27201-.1703-.57603-.1229-.87267.0473-.29664.1826-.57225.3883-.79112.2057-.21888.4725-.37094.7656-.43649.2932-.06555.5992-.04157.8786.06883.2794.1104.5192.30213.6883.55037.1692.24825.2599.54156.2604.84195.0108.38557-.1314.75975-.3956 1.04077-.2642.2811-.6289.4462-1.0144.4592Zm0-1.99997c-.1002-.00804-.2005.01431-.2878.06413-.0873.04983-.1576.12482-.2016.21518-.0441.09036-.0598.19191-.0453.29138.0145.09947.0587.19225.1268.26623.068.07399.1568.12573.2547.14849.098.02276.2005.01548.2942-.0209.0937-.03638.1743-.10016.2312-.18302.0569-.08287.0875-.18096.0878-.28149.0027-.06305-.0071-.12601-.0287-.18527-.0217-.05927-.0549-.11368-.0976-.16012-.0427-.04644-.0942-.084-.1514-.11053-.0573-.02653-.1192-.04151-.1823-.04408ZM16.7099 13.4998c-.2996.016-.5971-.0582-.854-.213-.257-.1548-.4616-.3831-.5875-.6554-.1259-.2722-.1673-.576-.1188-.8721.0486-.296.1847-.5707.391-.7886.2062-.2178.473-.3688.766-.4335.2929-.0646.5985-.04.8773.0708.2788.1108.5179.3026.6866.5508.1686.2481.259.541.2594.841.0053.1918-.0272.3827-.0957.5619-.0685.1791-.1716.3431-.3035.4824-.1319.1393-.2899.2512-.4651.3294-.1751.0782-.364.1211-.5557.1263Zm0-2c-.1-.006-.1994.0182-.2855.0693-.0861.0512-.1548.127-.1973.2177-.0425.0906-.0567.192-.041.2909.0158.0988.0609.1907.1295.2637.0686.0729.1575.1236.2552.1455.0977.0218.1997.0138.2928-.023.0932-.0368.1731-.1007.2295-.1834.0564-.0828.0866-.1806.0868-.2807.0027-.0638-.0074-.1276-.0297-.1875-.0223-.0599-.0564-.1148-.1002-.1613-.0437-.0466-.0964-.084-.1548-.1099-.0584-.026-.1214-.04-.1853-.0413Z"/></svg>

<svg width="24" height="24" viewBox="0 0 24 24" fill="current" xmlns="http://www.w3.org/2000/svg">
<path d="M18.5943 20C18.1532 20.0034 17.7161 19.9164 17.3097 19.7445C16.9033 19.5725 16.5362 19.3192 16.2308 19L14.3958 17H9.54912L7.70418 19C7.39991 19.3206 7.03299 19.5749 6.62633 19.7469C6.21967 19.919 5.78201 20.0051 5.34066 20C4.85862 19.9971 4.38322 19.8871 3.94866 19.6779C3.51411 19.4686 3.13122 19.1654 2.82755 18.79C2.51061 18.404 2.27406 17.9583 2.13189 17.4791C1.98972 16.9998 1.94481 16.4969 1.99982 16L2.99709 8.34C3.11875 7.16361 3.66577 6.0726 4.53484 5.27301C5.4039 4.47341 6.53487 4.02057 7.71416 4H16.2308C17.392 4.03342 18.5022 4.48564 19.3577 5.27367C20.2131 6.06169 20.7565 7.13265 20.888 8.29L21.9451 16C22.0112 16.5029 21.9745 17.014 21.8373 17.5022C21.7002 17.9905 21.4654 18.4456 21.1473 18.84C20.8336 19.2104 20.442 19.5066 20.0006 19.7071C19.5592 19.9077 19.0789 20.0077 18.5943 20ZM9.37959 15H14.5654C14.7656 15.0022 14.9634 15.0449 15.1468 15.1257C15.3302 15.2065 15.4954 15.3236 15.6324 15.47L17.627 17.55C17.7654 17.6921 17.9318 17.8037 18.1156 17.8777C18.2994 17.9518 18.4965 17.9866 18.6945 17.98C18.8924 17.9735 19.0869 17.9256 19.2654 17.8395C19.4439 17.7534 19.6025 17.631 19.7312 17.48C19.8712 17.3064 19.9743 17.106 20.0343 16.8911C20.0943 16.6762 20.11 16.4512 20.0803 16.23L19.083 8.57C19.0068 7.86454 18.6736 7.2121 18.1472 6.73782C17.6209 6.26354 16.9385 6.00081 16.2308 6H7.71416C7.0291 6.0319 6.37804 6.30855 5.8787 6.77991C5.37936 7.25127 5.0647 7.88624 4.99162 8.57L3.99435 16.23C3.96464 16.4512 3.98027 16.6762 4.04029 16.8911C4.10031 17.106 4.20345 17.3064 4.3434 17.48C4.4703 17.6321 4.62777 17.7556 4.80552 17.8425C4.98326 17.9294 5.17729 17.9777 5.37492 17.9843C5.57256 17.9909 5.76937 17.9557 5.95249 17.8808C6.13561 17.806 6.30093 17.6933 6.43765 17.55L8.43219 15.47C8.67752 15.1991 9.01596 15.0312 9.37959 15Z" fill="current"/>
<path d="M9.65012 13.5H7.76012V11.5H5.87012V9.5H7.76012V7.5H9.65012V9.5H11.5301V11.5H9.65012V13.5Z" fill="current"/>
<path d="M14.8302 10.5002C14.5304 10.5183 14.232 10.4458 13.9738 10.2923C13.7156 10.1389 13.5094 9.91138 13.3819 9.63936C13.2545 9.36735 13.2116 9.06333 13.259 8.76669C13.3063 8.47005 13.4416 8.19444 13.6473 7.97557C13.853 7.75669 14.1198 7.60463 14.4129 7.53908C14.7061 7.47353 15.0121 7.49751 15.2915 7.60791C15.5709 7.71831 15.8107 7.91004 15.9798 8.15828C16.149 8.40653 16.2397 8.69984 16.2402 9.00023C16.251 9.3858 16.1088 9.75998 15.8446 10.041C15.5804 10.3221 15.2157 10.4872 14.8302 10.5002ZM14.8302 8.50023C14.73 8.49219 14.6297 8.51454 14.5424 8.56436C14.4551 8.61419 14.3848 8.68918 14.3408 8.77954C14.2967 8.8699 14.281 8.97145 14.2955 9.07092C14.31 9.17039 14.3542 9.26317 14.4223 9.33715C14.4903 9.41114 14.5791 9.46288 14.677 9.48564C14.775 9.5084 14.8775 9.50112 14.9712 9.46474C15.0649 9.42836 15.1455 9.36458 15.2024 9.28172C15.2593 9.19885 15.2899 9.10076 15.2902 9.00023C15.2929 8.93718 15.2831 8.87422 15.2615 8.81496C15.2398 8.75569 15.2066 8.70128 15.1639 8.65484C15.1212 8.6084 15.0697 8.57084 15.0125 8.54431C14.9552 8.51778 14.8933 8.5028 14.8302 8.50023Z" fill="current"/>
<path d="M16.7099 13.4998C16.4103 13.5158 16.1128 13.4416 15.8559 13.2868C15.5989 13.132 15.3943 12.9037 15.2684 12.6314C15.1425 12.3592 15.1011 12.0554 15.1496 11.7593C15.1982 11.4633 15.3343 11.1886 15.5406 10.9707C15.7468 10.7529 16.0136 10.6019 16.3066 10.5372C16.5995 10.4726 16.9051 10.4972 17.1839 10.608C17.4627 10.7188 17.7018 10.9106 17.8705 11.1588C18.0391 11.4069 18.1295 11.6998 18.1299 11.9998C18.1352 12.1916 18.1027 12.3825 18.0342 12.5617C17.9657 12.7408 17.8626 12.9048 17.7307 13.0441C17.5988 13.1834 17.4408 13.2953 17.2656 13.3735C17.0905 13.4517 16.9016 13.4946 16.7099 13.4998ZM16.7099 11.4998C16.6099 11.4938 16.5105 11.518 16.4244 11.5691C16.3383 11.6203 16.2696 11.6961 16.2271 11.7868C16.1846 11.8774 16.1704 11.9788 16.1861 12.0777C16.2019 12.1765 16.247 12.2684 16.3156 12.3414C16.3842 12.4143 16.4731 12.465 16.5708 12.4869C16.6685 12.5087 16.7705 12.5007 16.8636 12.4639C16.9568 12.4271 17.0367 12.3632 17.0931 12.2805C17.1495 12.1977 17.1797 12.0999 17.1799 11.9998C17.1826 11.936 17.1725 11.8722 17.1502 11.8123C17.1279 11.7524 17.0938 11.6975 17.05 11.651C17.0063 11.6044 16.9536 11.567 16.8952 11.5411C16.8368 11.5151 16.7738 11.5011 16.7099 11.4998Z" fill="current"/>
</svg>
